src/icons/solid/symbols/rating-star.svg

<svg width="24" height="24" viewBox="0 0 24 24" fill="none" xmlns="http://www.w3.org/2000/svg">
<g clip-path="url(#clip0_4879_279)">
<path d="M22.9039 8.91954C22.8054 8.6478 22.6249 8.41253 22.3868 8.24551C22.1488 8.0785 21.8647 7.98779 21.5728 7.98563H15.8237C15.7267 7.98559 15.6321 7.95598 15.5527 7.90084C15.4733 7.84569 15.413 7.76769 15.38 7.67744L13.322 1.88721C13.2148 1.62495 13.0308 1.40036 12.7936 1.24228C12.5565 1.0842 12.2769 0.999829 11.991 1C11.7001 1.00138 11.4168 1.09193 11.1801 1.25918C10.9434 1.42643 10.765 1.66216 10.6693 1.93391L8.60191 7.69612C8.56893 7.78637 8.50864 7.86437 8.42925 7.91952C8.34986 7.97466 8.25522 8.00427 8.15822 8.00431H2.40909C2.11694 8.00512 1.83219 8.09531 1.59389 8.26251C1.35559 8.4297 1.17539 8.66573 1.07801 8.93822C0.984364 9.20758 0.9748 9.49859 1.05056 9.7734C1.12632 10.0482 1.28391 10.2941 1.50282 10.4792L6.39289 14.495C6.46636 14.5543 6.52007 14.6341 6.54701 14.7241C6.57395 14.814 6.57288 14.9099 6.54393 14.9993L4.48595 21.0977C4.38903 21.3801 4.38572 21.6857 4.4765 21.97C4.56727 22.2544 4.74741 22.5026 4.99069 22.6787C5.23396 22.8548 5.52769 22.9495 5.82912 22.949C6.13055 22.9485 6.42396 22.8529 6.66666 22.676L11.7078 19.0151C11.788 18.9552 11.8858 18.9229 11.9862 18.9229C12.0867 18.9229 12.1845 18.9552 12.2647 19.0151L17.3153 22.676C17.5561 22.8742 17.8566 22.9878 18.1696 22.9991C18.4827 23.0103 18.7907 22.9185 19.0454 22.7381C19.3001 22.5576 19.4872 22.2987 19.5772 22.0019C19.6673 21.7051 19.6553 21.3871 19.5432 21.0977L17.4852 14.9993C17.4563 14.9099 17.4552 14.814 17.4821 14.7241C17.5091 14.6341 17.5628 14.5543 17.6363 14.495L22.5358 10.4698C22.7479 10.2782 22.8965 10.0277 22.9622 9.75101C23.0279 9.47438 23.0076 9.18456 22.9039 8.91954Z" fill="#3C3B44"/>
</g>
<defs>
<clipPath id="clip0_4879_279">
<rect width="24" height="24" fill="white"/>
</clipPath>
</defs>
</svg>

<svg xmlns="http://www.w3.org/2000/svg" width="24" height="24" fill="none" viewBox="0 0 24 24"><g clip-path="url(#a)"><path fill="currentColor" d="M22.904 8.92a1.4 1.4 0 0 0-.517-.674 1.44 1.44 0 0 0-.814-.26h-5.75a.48.48 0 0 1-.443-.309l-2.058-5.79a1.4 1.4 0 0 0-.528-.645 1.42 1.42 0 0 0-1.614.017 1.4 1.4 0 0 0-.51.675L8.601 7.696a.47.47 0 0 1-.444.308H2.41a1.4 1.4 0 0 0-.815.259 1.4 1.4 0 0 0-.516.675 1.405 1.405 0 0 0 .425 1.541l4.89 4.016a.47.47 0 0 1 .15.504l-2.057 6.099a1.39 1.39 0 0 0 .505 1.58 1.43 1.43 0 0 0 1.676-.002l5.04-3.66a.465.465 0 0 1 .558 0l5.05 3.66a1.425 1.425 0 0 0 1.73.062 1.39 1.39 0 0 0 .498-1.64l-2.058-6.099a.46.46 0 0 1 .151-.504l4.9-4.025a1.41 1.41 0 0 0 .368-1.55"/></g><defs><clipPath id="a"><path fill="currentColor" d="M0 0h24v24H0z"/></clipPath></defs></svg>
